X: 22994
T: Lassie With The Yellow Petticoat, The
R: reel
M: 4/4
K: Gmajor
G2 GB degd|e/e/e gd e>deg|G/G/G GB degd|e/f/g dB AG E2:|
gabg aegd|Bdde =f>ged|gabg aegd|e/f/g dB A>G E2:|

